X:38
T:Come Haste to the Wedding
S:John Moore's Book 1
Z:Transcribed by David Jacobs  April 2021
%%VWML: Moore1-4493-p23-0
F:http://www.vwml.org/record/Moore1/4493/p23
M:6/8
L:1/8
K:C
A|AFA Aaf|ede fdB|AGA BdF|EEE E2A|
AFG Aaf| Ede fdB| AFA faf|ddd d2:|
|:a|(af)a (af)a|(bg)b (bg)b|afa agf|eee e3|
a3 f3|ede fdB|AFA faf|ddd d2:|]

